X: 30038
T: Off To California
R: hornpipe
M: 4/4
K: Gmajor
(3DEF|:"G"GFGB "D"AGED|"G"GBdg "C"e2 (3def|"G"gfgd "Em"edBG|"Am"ABAG "D"E2 (3DEF|
"G"GFGB "D"AGED|"G"GBdg "C"e2 (3def|"G"gfgd "Em"edBG|1 "D" AB EF "G"G2 (3DEF:|2 "D"AB EF "G"G2 (3def||
|:"E"gfeg "Bm"fedf|"C"edef "Em"edBd|"G"gfgd "Em"edBG|"Am"ABAG "D"E2 (3DEF|
"G"GFGB "D"AGED|"G"GBdg "C"e2 (3def|"G"gfgd "Em"edBG|1 "D"AB EF "G"G2 (3def:|2 "D"AB EF "G"G4||

